X:28
T:A Waltz   
O:No 28 Page 11  William Clarke of Feltwell  MS 1858
N:Dots added tp quaver/semiquaver pairs.
N:See Bury Waltz  #050
N:Missing bar lines and dots added
I:abc2nwc
M:3/4
L:1/8
K:G
B2|d2c2A2|B4G2|AB c2e2|d4B2|
d2c2A2|B4G2|AB c2A2|G4:|
|:B3/2d/2|g2g2"^*"B3/2d/2|g2g2g2|a2a2d'2|b2g2"^*"B3/2d/2|
g2g2"^*"B3/2d/2|g2g2b2|ac' fa df|g4:|

